images/icons/logos_telegram.svg

<svg width="26" height="26" viewBox="0 0 26 26" fill="none" xmlns="http://www.w3.org/2000/svg">
<path d="M13 0C5.82024 0 0 5.82024 0 13C0 20.1798 5.82024 26 13 26C20.1798 26 26 20.1798 26 13C26 5.82024 20.1798 0 13 0Z" fill="#40B3E0"/>
<path d="M19.3256 7.47762L17.0036 19.1846C17.0036 19.1846 16.6789 19.9965 15.7858 19.6068L10.4276 15.4988L8.47923 14.5571L5.19937 13.453C5.19937 13.453 4.69602 13.2744 4.64727 12.8847C4.59852 12.495 5.21562 12.284 5.21562 12.284L18.2538 7.16928C18.2538 7.16928 19.3255 6.69843 19.3255 7.47783" fill="white"/>
<path d="M10.0161 19.0533C10.0161 19.0533 9.85973 19.0387 9.66473 18.4216C9.47003 17.8046 8.47949 14.5572 8.47949 14.5572L16.3544 9.55628C16.3544 9.55628 16.8091 9.28023 16.7929 9.55628C16.7929 9.55628 16.874 9.60503 16.6304 9.83233C16.3869 10.0597 10.4442 15.4016 10.4442 15.4016" fill="#D2E5F1"/>
<path d="M12.4828 17.0738L10.3635 19.0062C10.3635 19.0062 10.1978 19.1319 10.0166 19.0531L10.4224 15.4639" fill="#B5CFE4"/>
</svg>

<svg width="26" height="26" fill="none" xmlns="http://www.w3.org/2000/svg"><path d="M13 0C5.82 0 0 5.82 0 13s5.82 13 13 13 13-5.82 13-13S20.18 0 13 0z" fill="#40B3E0"/><path d="M19.326 7.478l-2.322 11.707s-.325.812-1.218.422l-5.358-4.108-1.949-.942-3.28-1.104s-.503-.179-.552-.568c-.048-.39.569-.601.569-.601l13.038-5.115s1.072-.47 1.072.309" fill="#fff"/><path d="M10.016 19.053s-.156-.014-.351-.631c-.195-.617-1.186-3.865-1.186-3.865l7.875-5s.455-.277.439 0c0 0 .081.048-.163.275-.243.228-6.186 5.57-6.186 5.57" fill="#D2E5F1"/><path d="M12.483 17.074l-2.12 1.932s-.165.126-.346.047l.405-3.59" fill="#B5CFE4"/></svg>
